Newaita-dark/mimetypes/16/audio-x-playlist.svg

<svg height="16pt" viewBox="0 0 16 16" width="16pt" xmlns="http://www.w3.org/2000/svg" xmlns:xlink="http://www.w3.org/1999/xlink"><linearGradient id="a"><stop offset="0" stop-opacity=".27451"/><stop offset="1" stop-opacity="0"/></linearGradient><linearGradient id="b" gradientUnits="userSpaceOnUse" x1="8.269022" x2="8.269022" xlink:href="#a" y1="14.0169675" y2="14.67848943751"/><linearGradient id="c"><stop offset="0" stop-opacity=".313725"/><stop offset=".222222" stop-opacity=".27451"/><stop offset="1" stop-opacity="0"/></linearGradient><radialGradient id="d" cx="450.90894" cy="189.57936" gradientTransform="matrix(.00000009 -.0390662 -.0703192 -.00000005 24.742284 31.797667)" gradientUnits="userSpaceOnUse" r="21.166656" xlink:href="#c"/><radialGradient id="e" cx="450.90894" cy="189.57936" gradientTransform="matrix(-.00000009 .0390662 .0703192 .00000005 -9.196526 -3.76374)" gradientUnits="userSpaceOnUse" r="21.166656" xlink:href="#c"/><radialGradient id="f" cx="450.90894" cy="189.57936" gradientTransform="matrix(-.00000009 -.0390662 .0703192 -.00000005 -9.196526 31.797667)" gradientUnits="userSpaceOnUse" r="21.166656" xlink:href="#c"/><radialGradient id="g" cx="450.90894" cy="189.57936" gradientTransform="matrix(.00000009 .0390662 -.0703192 .00000005 24.742283 -3.76374)" gradientUnits="userSpaceOnUse" r="21.166656" xlink:href="#c"/><linearGradient id="h" gradientUnits="userSpaceOnUse" x1="7.7728788" x2="7.7728788" y1="14.01696629816" y2="1.44805523664"><stop offset="0" stop-color="#b0bec5"/><stop offset="1" stop-color="#cfd8dc"/></linearGradient><linearGradient id="i" gradientTransform="matrix(.0149471 0 0 .0546927 7.521212 -8.263145)" gradientUnits="userSpaceOnUse" x1="249.18942" x2="249.18942" xlink:href="#a" y1="233.5" y2="254.66669"/><linearGradient id="j"><stop offset="0" stop-color="#78909c"/><stop offset="1" stop-color="#90a4ae"/></linearGradient><linearGradient id="k" gradientUnits="userSpaceOnUse" x1="10.58434912498" x2="10.58434912498" xlink:href="#j" y1="14.0169675" y2="1.44805256249"/><linearGradient id="l" gradientUnits="userSpaceOnUse" x1="254" x2="254" xlink:href="#j" y1="233.5" y2="-168.66667"/><linearGradient id="m" gradientUnits="userSpaceOnUse" x1="305.56444047967" x2="305.56444047967" xlink:href="#j" y1="165.42758280167" y2="-1.8942624185"/><path d="m3.96875 14.015625h7.609375v.664063h-7.609375zm0 0" fill="url(#b)"/><path d="m11.578125 14.015625h1.320313v-.660156h-1.320313zm0 0" fill="url(#d)"/><path d="m3.96875 14.015625h-1.324219v.664063h1.324219zm0 0" fill="url(#e)"/><path d="m3.96875 14.015625h-1.324219v-.660156h1.324219zm0 0" fill="url(#f)"/><path d="m11.578125 14.015625h1.320313v.664063h-1.320313zm0 0" fill="url(#g)"/><path d="m9.269531 1.449219h-5.960937c-.367188 0-.664063.292969-.664063.660156v11.246094c0 .367187.296875.660156.664063.660156h8.929687c.367188 0 .660157-.292969.660157-.660156v-8.277344zm0 0" fill="url(#h)"/><path d="m2.644531 13.097656v.257813c0 .367187.296875.660156.664063.660156h8.929687c.367188 0 .660157-.292969.660157-.660156v-.257813c0 .367188-.292969.664063-.660157.664063h-8.929687c-.367188 0-.664063-.296875-.664063-.664063zm0 0" fill-opacity=".235294"/><path d="m9.261719 4.507812h3.140625l.496094.496094v.660156h-3.636719zm0 0" fill="url(#i)"/><path d="m3.308594 1.449219c-.367188 0-.664063.292969-.664063.660156v.25c0-.367187.296875-.664063.664063-.664063h5.960937l3.628907 3.628907v-.246094l-3.628907-3.628906zm0 0" fill="#fff" fill-opacity=".392157"/><path d="m12.898438 5.078125-3.628907-3.628906v2.964843c0 .367188.296875.664063.664063.664063zm0 0" fill="url(#k)"/><path d="m9.269531 4.257812v.15625c0 .367188.296875.664063.664063.664063h2.964844l-.15625-.15625h-2.808594c-.367188 0-.664063-.296875-.664063-.664063zm0 0" fill-opacity=".235294"/><path d="m9.269531 1.449219v.246093l3.382813 3.382813h.246094zm0 0" fill="#fff" fill-opacity=".392157"/><path d="m9.269531 1.402344c-.023437 0-.046875.019531-.046875.046875v2.964843c0 .394532.316406.710938.710938.710938h2.964844c.019531 0 .039062-.011719.042968-.03125.007813-.015625.003906-.035156-.007812-.050781l-3.628906-3.628907c-.007813-.007812-.023438-.011718-.035157-.011718zm.046875.160156 3.46875 3.46875h-2.851562c-.34375 0-.617188-.273438-.617188-.617188zm0 0" fill="#212121"/><path d="m3.308594 1.402344c-.394532 0-.710938.316406-.710938.707031v11.246094c0 .390625.316406.707031.710938.707031h8.929687c.390625 0 .707031-.316406.707031-.707031v-8.277344c0-.015625-.003906-.027344-.011718-.035156l-3.628906-3.628907c-.007813-.007812-.019532-.011718-.035157-.011718zm0 .09375h5.941406l3.601562 3.601562v8.257813c0 .339843-.273437.613281-.613281.613281h-8.929687c-.34375 0-.617188-.273438-.617188-.613281v-11.246094c0-.339844.273438-.613281.617188-.613281zm0 0" fill="#212121"/><g stroke="#212121" stroke-linecap="round" stroke-linejoin="round" stroke-width="3"><path d="m163.984358-31.142563h169.358827c2.999713 0 5.374487 2.374774 5.374487 5.374487v10.498998c0 2.999713-2.374774 5.374486-5.374487 5.374486h-169.358827c-2.874726 0-5.249499-2.374773-5.249499-5.374486v-10.498998c0-2.999713 2.374773-5.374487 5.249499-5.374487zm0 0" fill="url(#l)" transform="matrix(.031253 0 0 .031253 -.000001 6.719392)"/><path d="m163.984358 11.228391h169.358827c2.999713 0 5.374487 2.374773 5.374487 5.374487v10.498997c0 2.999714-2.374774 5.374487-5.374487 5.374487h-169.358827c-2.874726 0-5.249499-2.374773-5.249499-5.374487v-10.498997c0-2.999714 2.374773-5.374487 5.249499-5.374487zm0 0" fill="url(#l)" transform="matrix(.031253 0 0 .031253 -.000001 6.719392)"/><path d="m163.984358 53.599345h95.365893c2.874725 0 5.249499 2.374773 5.249499 5.249499v10.623985c0 2.874726-2.374774 5.249499-5.249499 5.249499h-95.365893c-2.874726 0-5.249499-2.374773-5.249499-5.249499v-10.623985c0-2.874726 2.374773-5.249499 5.249499-5.249499zm0 0" fill="url(#l)" transform="matrix(.031253 0 0 .031253 -.000001 6.719392)"/><path d="m163.984358 95.970299h95.365893c2.874725 0 5.249499 2.374773 5.249499 5.249498v10.623986c0 2.874725-2.374774 5.249499-5.249499 5.249499h-95.365893c-2.874726 0-5.249499-2.374774-5.249499-5.249499v-10.623986c0-2.874725 2.374773-5.249498 5.249499-5.249498zm0 0" fill="url(#l)" transform="matrix(.031253 0 0 .031253 -.000001 6.719392)"/><path d="m285.722715 55.349183c-2.374773 0-4.374582 1.999809-4.374582 4.374582v52.869951c0 3.374678 3.624653 5.499475 6.499379 3.87463l48.495369-26.497469c2.999713-1.624845 2.999713-5.999427 0-7.624272l-48.495369-26.49747c-.62494-.374964-1.374869-.499952-2.124797-.499952zm0 0" fill="url(#m)" fill-rule="evenodd" transform="matrix(.031253 0 0 .031253 0 6.719392)"/></g></svg>

<?xml version="1.0" encoding="UTF-8"?>
<svg xmlns="http://www.w3.org/2000/svg" xmlns:xlink="http://www.w3.org/1999/xlink" width="16pt" height="16pt" viewBox="0 0 16 16" version="1.1">
<defs>
<linearGradient id="linear0" gradientUnits="userSpaceOnUse" x1="254" y1="233.5" x2="254" y2="254.66667" gradientTransform="matrix(0.031253,0,0,0.031253,0.33076,6.719392)">
<stop offset="0" style="stop-color:rgb(0%,0%,0%);stop-opacity:0.27451;"/>
<stop offset="1" style="stop-color:rgb(0%,0%,0%);stop-opacity:0;"/>
</linearGradient>
<radialGradient id="radial0" gradientUnits="userSpaceOnUse" cx="450.90894" cy="189.57936" fx="450.90894" fy="189.57936" r="21.166656" gradientTransform="matrix(0.0000000870852,-0.0390662,-0.0703192,-0.0000000507693,24.742284,31.797667)">
<stop offset="0" style="stop-color:rgb(0%,0%,0%);stop-opacity:0.313725;"/>
<stop offset="0.222222" style="stop-color:rgb(0%,0%,0%);stop-opacity:0.27451;"/>
<stop offset="1" style="stop-color:rgb(0%,0%,0%);stop-opacity:0;"/>
</radialGradient>
<radialGradient id="radial1" gradientUnits="userSpaceOnUse" cx="450.90894" cy="189.57936" fx="450.90894" fy="189.57936" r="21.166656" gradientTransform="matrix(-0.0000000870852,0.0390662,0.0703192,0.0000000507693,-9.196526,-3.76374)">
<stop offset="0" style="stop-color:rgb(0%,0%,0%);stop-opacity:0.313725;"/>
<stop offset="0.222222" style="stop-color:rgb(0%,0%,0%);stop-opacity:0.27451;"/>
<stop offset="1" style="stop-color:rgb(0%,0%,0%);stop-opacity:0;"/>
</radialGradient>
<radialGradient id="radial2" gradientUnits="userSpaceOnUse" cx="450.90894" cy="189.57936" fx="450.90894" fy="189.57936" r="21.166656" gradientTransform="matrix(-0.0000000870852,-0.0390662,0.0703192,-0.0000000507693,-9.196526,31.797667)">
<stop offset="0" style="stop-color:rgb(0%,0%,0%);stop-opacity:0.313725;"/>
<stop offset="0.222222" style="stop-color:rgb(0%,0%,0%);stop-opacity:0.27451;"/>
<stop offset="1" style="stop-color:rgb(0%,0%,0%);stop-opacity:0;"/>
</radialGradient>
<radialGradient id="radial3" gradientUnits="userSpaceOnUse" cx="450.90894" cy="189.57936" fx="450.90894" fy="189.57936" r="21.166656" gradientTransform="matrix(0.0000000870852,0.0390662,-0.0703192,0.0000000507693,24.742283,-3.76374)">
<stop offset="0" style="stop-color:rgb(0%,0%,0%);stop-opacity:0.313725;"/>
<stop offset="0.222222" style="stop-color:rgb(0%,0%,0%);stop-opacity:0.27451;"/>
<stop offset="1" style="stop-color:rgb(0%,0%,0%);stop-opacity:0;"/>
</radialGradient>
<linearGradient id="linear1" gradientUnits="userSpaceOnUse" x1="940" y1="1695.1182" x2="940" y2="175.11812" gradientTransform="matrix(0.00826902,0,0,0.00826902,0,0)">
<stop offset="0" style="stop-color:rgb(69.019608%,74.509804%,77.254902%);stop-opacity:1;"/>
<stop offset="1" style="stop-color:rgb(81.176471%,84.705882%,86.27451%);stop-opacity:1;"/>
</linearGradient>
<linearGradient id="linear2" gradientUnits="userSpaceOnUse" x1="249.18942" y1="233.5" x2="249.18942" y2="254.66669" gradientTransform="matrix(0.0149471,0,0,0.0546927,7.521212,-8.263145)">
<stop offset="0" style="stop-color:rgb(0%,0%,0%);stop-opacity:0.27451;"/>
<stop offset="1" style="stop-color:rgb(0%,0%,0%);stop-opacity:0;"/>
</linearGradient>
<linearGradient id="linear3" gradientUnits="userSpaceOnUse" x1="338.66666" y1="233.5" x2="338.66666" y2="-168.66667" gradientTransform="matrix(0.031253,0,0,0.031253,0,6.719392)">
<stop offset="0" style="stop-color:rgb(47.058824%,56.470588%,61.176471%);stop-opacity:1;"/>
<stop offset="1" style="stop-color:rgb(56.470588%,64.313725%,68.235294%);stop-opacity:1;"/>
</linearGradient>
<linearGradient id="linear4" gradientUnits="userSpaceOnUse" x1="254" y1="233.5" x2="254" y2="-168.66667" >
<stop offset="0" style="stop-color:rgb(47.058824%,56.470588%,61.176471%);stop-opacity:1;"/>
<stop offset="1" style="stop-color:rgb(56.470588%,64.313725%,68.235294%);stop-opacity:1;"/>
</linearGradient>
<linearGradient id="linear5" gradientUnits="userSpaceOnUse" x1="254" y1="233.5" x2="254" y2="-168.66667" >
<stop offset="0" style="stop-color:rgb(47.058824%,56.470588%,61.176471%);stop-opacity:1;"/>
<stop offset="1" style="stop-color:rgb(56.470588%,64.313725%,68.235294%);stop-opacity:1;"/>
</linearGradient>
<linearGradient id="linear6" gradientUnits="userSpaceOnUse" x1="254" y1="233.5" x2="254" y2="-168.66667" >
<stop offset="0" style="stop-color:rgb(47.058824%,56.470588%,61.176471%);stop-opacity:1;"/>
<stop offset="1" style="stop-color:rgb(56.470588%,64.313725%,68.235294%);stop-opacity:1;"/>
</linearGradient>
<linearGradient id="linear7" gradientUnits="userSpaceOnUse" x1="254" y1="233.5" x2="254" y2="-168.66667" >
<stop offset="0" style="stop-color:rgb(47.058824%,56.470588%,61.176471%);stop-opacity:1;"/>
<stop offset="1" style="stop-color:rgb(56.470588%,64.313725%,68.235294%);stop-opacity:1;"/>
</linearGradient>
<linearGradient id="linear8" gradientUnits="userSpaceOnUse" x1="248.70117" y1="222.92317" x2="248.70117" y2="-179.2435" gradientTransform="matrix(0.416051,0,0,0.416051,202.09207,72.680175)">
<stop offset="0" style="stop-color:rgb(47.058824%,56.470588%,61.176471%);stop-opacity:1;"/>
<stop offset="1" style="stop-color:rgb(56.470588%,64.313725%,68.235294%);stop-opacity:1;"/>
</linearGradient>
</defs>
<g id="surface1">
<path style=" stroke:none;fill-rule:nonzero;fill:url(#linear0);" d="M 3.96875 14.015625 L 11.578125 14.015625 L 11.578125 14.679688 L 3.96875 14.679688 Z M 3.96875 14.015625 "/>
<path style=" stroke:none;fill-rule:nonzero;fill:url(#radial0);" d="M 11.578125 14.015625 L 12.898438 14.015625 L 12.898438 13.355469 L 11.578125 13.355469 Z M 11.578125 14.015625 "/>
<path style=" stroke:none;fill-rule:nonzero;fill:url(#radial1);" d="M 3.96875 14.015625 L 2.644531 14.015625 L 2.644531 14.679688 L 3.96875 14.679688 Z M 3.96875 14.015625 "/>
<path style=" stroke:none;fill-rule:nonzero;fill:url(#radial2);" d="M 3.96875 14.015625 L 2.644531 14.015625 L 2.644531 13.355469 L 3.96875 13.355469 Z M 3.96875 14.015625 "/>
<path style=" stroke:none;fill-rule:nonzero;fill:url(#radial3);" d="M 11.578125 14.015625 L 12.898438 14.015625 L 12.898438 14.679688 L 11.578125 14.679688 Z M 11.578125 14.015625 "/>
<path style=" stroke:none;fill-rule:nonzero;fill:url(#linear1);" d="M 9.269531 1.449219 L 3.308594 1.449219 C 2.941406 1.449219 2.644531 1.742188 2.644531 2.109375 L 2.644531 13.355469 C 2.644531 13.722656 2.941406 14.015625 3.308594 14.015625 L 12.238281 14.015625 C 12.605469 14.015625 12.898438 13.722656 12.898438 13.355469 L 12.898438 5.078125 Z M 9.269531 1.449219 "/>
<path style=" stroke:none;fill-rule:nonzero;fill:rgb(0%,0%,0%);fill-opacity:0.235294;" d="M 2.644531 13.097656 L 2.644531 13.355469 C 2.644531 13.722656 2.941406 14.015625 3.308594 14.015625 L 12.238281 14.015625 C 12.605469 14.015625 12.898438 13.722656 12.898438 13.355469 L 12.898438 13.097656 C 12.898438 13.464844 12.605469 13.761719 12.238281 13.761719 L 3.308594 13.761719 C 2.941406 13.761719 2.644531 13.464844 2.644531 13.097656 Z M 2.644531 13.097656 "/>
<path style=" stroke:none;fill-rule:nonzero;fill:url(#linear2);" d="M 9.261719 4.507812 L 12.402344 4.507812 L 12.898438 5.003906 L 12.898438 5.664062 L 9.261719 5.664062 Z M 9.261719 4.507812 "/>
<path style=" stroke:none;fill-rule:nonzero;fill:rgb(100%,100%,100%);fill-opacity:0.392157;" d="M 3.308594 1.449219 C 2.941406 1.449219 2.644531 1.742188 2.644531 2.109375 L 2.644531 2.359375 C 2.644531 1.992188 2.941406 1.695312 3.308594 1.695312 L 9.269531 1.695312 L 12.898438 5.324219 L 12.898438 5.078125 L 9.269531 1.449219 Z M 3.308594 1.449219 "/>
<path style=" stroke:none;fill-rule:nonzero;fill:url(#linear3);" d="M 12.898438 5.078125 L 9.269531 1.449219 L 9.269531 4.414062 C 9.269531 4.78125 9.566406 5.078125 9.933594 5.078125 Z M 12.898438 5.078125 "/>
<path style=" stroke:none;fill-rule:nonzero;fill:rgb(0%,0%,0%);fill-opacity:0.235294;" d="M 9.269531 4.257812 L 9.269531 4.414062 C 9.269531 4.78125 9.566406 5.078125 9.933594 5.078125 L 12.898438 5.078125 L 12.742188 4.921875 L 9.933594 4.921875 C 9.566406 4.921875 9.269531 4.625 9.269531 4.257812 Z M 9.269531 4.257812 "/>
<path style=" stroke:none;fill-rule:nonzero;fill:rgb(100%,100%,100%);fill-opacity:0.392157;" d="M 9.269531 1.449219 L 9.269531 1.695312 L 12.652344 5.078125 L 12.898438 5.078125 Z M 9.269531 1.449219 "/>
<path style=" stroke:none;fill-rule:nonzero;fill:rgb(12.941176%,12.941176%,12.941176%);fill-opacity:1;" d="M 9.269531 1.402344 C 9.246094 1.402344 9.222656 1.421875 9.222656 1.449219 L 9.222656 4.414062 C 9.222656 4.808594 9.539062 5.125 9.933594 5.125 L 12.898438 5.125 C 12.917969 5.125 12.9375 5.113281 12.941406 5.09375 C 12.949219 5.078125 12.945312 5.058594 12.933594 5.042969 L 9.304688 1.414062 C 9.296875 1.40625 9.28125 1.402344 9.269531 1.402344 Z M 9.316406 1.5625 L 12.785156 5.03125 L 9.933594 5.03125 C 9.589844 5.03125 9.316406 4.757812 9.316406 4.414062 Z M 9.316406 1.5625 "/>
<path style=" stroke:none;fill-rule:nonzero;fill:rgb(12.941176%,12.941176%,12.941176%);fill-opacity:1;" d="M 3.308594 1.402344 C 2.914062 1.402344 2.597656 1.71875 2.597656 2.109375 L 2.597656 13.355469 C 2.597656 13.746094 2.914062 14.0625 3.308594 14.0625 L 12.238281 14.0625 C 12.628906 14.0625 12.945312 13.746094 12.945312 13.355469 L 12.945312 5.078125 C 12.945312 5.0625 12.941406 5.050781 12.933594 5.042969 L 9.304688 1.414062 C 9.296875 1.40625 9.285156 1.402344 9.269531 1.402344 Z M 3.308594 1.496094 L 9.25 1.496094 L 12.851562 5.097656 L 12.851562 13.355469 C 12.851562 13.695312 12.578125 13.96875 12.238281 13.96875 L 3.308594 13.96875 C 2.964844 13.96875 2.691406 13.695312 2.691406 13.355469 L 2.691406 2.109375 C 2.691406 1.769531 2.964844 1.496094 3.308594 1.496094 Z M 3.308594 1.496094 "/>
<path style="fill-rule:nonzero;fill:url(#linear4);stroke-width:3;stroke-linecap:round;stroke-linejoin:round;stroke:rgb(12.941176%,12.941176%,12.941176%);stroke-opacity:1;stroke-miterlimit:4;" d="M 163.984358 -31.142563 L 333.343185 -31.142563 C 336.342898 -31.142563 338.717672 -28.767789 338.717672 -25.768076 L 338.717672 -15.269078 C 338.717672 -12.269365 336.342898 -9.894592 333.343185 -9.894592 L 163.984358 -9.894592 C 161.109632 -9.894592 158.734859 -12.269365 158.734859 -15.269078 L 158.734859 -25.768076 C 158.734859 -28.767789 161.109632 -31.142563 163.984358 -31.142563 Z M 163.984358 -31.142563 " transform="matrix(0.031253,0,0,0.031253,-0.000000549788,6.719392)"/>
<path style="fill-rule:nonzero;fill:url(#linear5);stroke-width:3;stroke-linecap:round;stroke-linejoin:round;stroke:rgb(12.941176%,12.941176%,12.941176%);stroke-opacity:1;stroke-miterlimit:4;" d="M 163.984358 11.228391 L 333.343185 11.228391 C 336.342898 11.228391 338.717672 13.603164 338.717672 16.602878 L 338.717672 27.101875 C 338.717672 30.101589 336.342898 32.476362 333.343185 32.476362 L 163.984358 32.476362 C 161.109632 32.476362 158.734859 30.101589 158.734859 27.101875 L 158.734859 16.602878 C 158.734859 13.603164 161.109632 11.228391 163.984358 11.228391 Z M 163.984358 11.228391 " transform="matrix(0.031253,0,0,0.031253,-0.000000549788,6.719392)"/>
<path style="fill-rule:nonzero;fill:url(#linear6);stroke-width:3;stroke-linecap:round;stroke-linejoin:round;stroke:rgb(12.941176%,12.941176%,12.941176%);stroke-opacity:1;stroke-miterlimit:4;" d="M 163.984358 53.599345 L 259.350251 53.599345 C 262.224976 53.599345 264.59975 55.974118 264.59975 58.848844 L 264.59975 69.472829 C 264.59975 72.347555 262.224976 74.722328 259.350251 74.722328 L 163.984358 74.722328 C 161.109632 74.722328 158.734859 72.347555 158.734859 69.472829 L 158.734859 58.848844 C 158.734859 55.974118 161.109632 53.599345 163.984358 53.599345 Z M 163.984358 53.599345 " transform="matrix(0.031253,0,0,0.031253,-0.000000549788,6.719392)"/>
<path style="fill-rule:nonzero;fill:url(#linear7);stroke-width:3;stroke-linecap:round;stroke-linejoin:round;stroke:rgb(12.941176%,12.941176%,12.941176%);stroke-opacity:1;stroke-miterlimit:4;" d="M 163.984358 95.970299 L 259.350251 95.970299 C 262.224976 95.970299 264.59975 98.345072 264.59975 101.219797 L 264.59975 111.843783 C 264.59975 114.718508 262.224976 117.093282 259.350251 117.093282 L 163.984358 117.093282 C 161.109632 117.093282 158.734859 114.718508 158.734859 111.843783 L 158.734859 101.219797 C 158.734859 98.345072 161.109632 95.970299 163.984358 95.970299 Z M 163.984358 95.970299 " transform="matrix(0.031253,0,0,0.031253,-0.000000549788,6.719392)"/>
<path style="fill-rule:evenodd;fill:url(#linear8);stroke-width:3;stroke-linecap:round;stroke-linejoin:round;stroke:rgb(12.941176%,12.941176%,12.941176%);stroke-opacity:1;stroke-miterlimit:4;" d="M 285.722715 55.349183 C 283.347942 55.349183 281.348133 57.348992 281.348133 59.723765 L 281.348133 112.593716 C 281.348133 115.968394 284.972786 118.093191 287.847512 116.468346 L 336.342881 89.970877 C 339.342594 88.346032 339.342594 83.97145 336.342881 82.346605 L 287.847512 55.849135 C 287.222572 55.474171 286.472643 55.349183 285.722715 55.349183 Z M 285.722715 55.349183 " transform="matrix(0.031253,0,0,0.031253,0,6.719392)"/>
</g>
</svg>
